X: 32883
T: Portree Bay
R: jig
M: 6/8
K: Amajor
|:e|A>ce e2c|f>ea f>ec|A>ce e2f|e>cA B2c|
A>ce e2c|f>ea f>ec|A>Bc B<fB|c>BA A2:|
|:g|a>Aa a2e|f>ea f>ec|a>Aa a>gf|e>cA B2c|
a>Aa a2e|f>ea f>ec|A>Bc B<fB|c>BA A2:|
|:e|A>ce A>ce|f>ea f>ec|A>ce A>ce|e>cA B2c|
A>ce A>ce|f>ea f>ec|A>Bc B<fB|c>BA A2:|
|:g|a>Aa a>fe|f<ae f>ec|a>Aa a>gf|e>cA B2c|
a>Aa a>fe|f<ae f>ec|A>Bc B<fB|c>Ba A2:|

